X: 8303
T: Corofin Nights
R: jig
M: 6/8
K: Amajor
e2d||~c3 AEC|A,CE Ace|~f3 dBG|EGB dfa|
ece AEC|A,CE Ace|fdB GEe|1 cAG Aed:|2 cAG Aag||
~f3 dcd|efe Ace|dBG EGB|cAf eag|
f3 dcd|efe Ace|fdB GEe|cAG Aag|
~f3 dcd|efe Ace|dBG EGB|Acf eag|
f3 agf|ece gfe|fdB GEe|cAG Aed||

